status/dialog-password-symbolic.svg

<?xml version="1.0" encoding="UTF-8" standalone="no"?>
<!-- Created with Inkscape (http://www.inkscape.org/) -->

<svg
   xmlns:dc="http://purl.org/dc/elements/1.1/"
   xmlns:cc="http://creativecommons.org/ns#"
   xmlns:rdf="http://www.w3.org/1999/02/22-rdf-syntax-ns#"
   xmlns:svg="http://www.w3.org/2000/svg"
   xmlns="http://www.w3.org/2000/svg"
   xmlns:sodipodi="http://sodipodi.sourceforge.net/DTD/sodipodi-0.dtd"
   xmlns:inkscape="http://www.inkscape.org/namespaces/inkscape"
   width="16"
   height="16"
   id="svg4152"
   version="1.1"
   inkscape:version="0.92.1 r"
   viewBox="0 0 16 16"
   sodipodi:docname="dialog-password-symbolic.svg">
  <defs
     id="defs4154" />
  <sodipodi:namedview
     id="base"
     pagecolor="#ededed"
     bordercolor="#000000"
     borderopacity="0.49803922"
     inkscape:pageopacity="0"
     inkscape:pageshadow="2"
     inkscape:zoom="44.395604"
     inkscape:cx="8.4220937"
     inkscape:cy="7.7135465"
     inkscape:current-layer="layer1"
     showgrid="true"
     inkscape:grid-bbox="true"
     inkscape:document-units="px"
     inkscape:showpageshadow="false"
     borderlayer="true"
     inkscape:window-width="1920"
     inkscape:window-height="1012"
     inkscape:window-x="0"
     inkscape:window-y="32"
     inkscape:window-maximized="1">
    <inkscape:grid
       type="xygrid"
       id="grid4700"
       color="#000000"
       opacity="0.0627451"
       empcolor="#000000"
       empopacity="0.1254902"
       empspacing="4"
       spacingx="2"
       spacingy="2" />
  </sodipodi:namedview>
  <metadata
     id="metadata4157">
    <rdf:RDF>
      <cc:Work
         rdf:about="">
        <dc:format>image/svg+xml</dc:format>
        <dc:type
           rdf:resource="http://purl.org/dc/dcmitype/StillImage" />
        <dc:title />
      </cc:Work>
    </rdf:RDF>
  </metadata>
  <g
     id="layer1"
     inkscape:label="Layer 1"
     inkscape:groupmode="layer">
    <path
       style="color:#000000;font-style:normal;font-variant:normal;font-weight:normal;font-stretch:normal;font-size:medium;line-height:normal;font-family:sans-serif;font-variant-ligatures:normal;font-variant-position:normal;font-variant-caps:normal;font-variant-numeric:normal;font-variant-alternates:normal;font-feature-settings:normal;text-indent:0;text-align:start;text-decoration:none;text-decoration-line:none;text-decoration-style:solid;text-decoration-color:#000000;letter-spacing:normal;word-spacing:normal;text-transform:none;writing-mode:lr-tb;direction:ltr;text-orientation:mixed;dominant-baseline:auto;baseline-shift:baseline;text-anchor:start;white-space:normal;shape-padding:0;clip-rule:nonzero;display:inline;overflow:visible;visibility:visible;opacity:1;isolation:auto;mix-blend-mode:normal;color-interpolation:sRGB;color-interpolation-filters:linearRGB;solid-color:#000000;solid-opacity:1;vector-effect:none;fill:#000000;fill-opacity:1;fill-rule:evenodd;stroke:none;stroke-width:2;stroke-linecap:round;stroke-linejoin:round;stroke-miterlimit:4;stroke-dasharray:none;stroke-dashoffset:0;stroke-opacity:1;paint-order:normal;color-rendering:auto;image-rendering:auto;shape-rendering:auto;text-rendering:auto;enable-background:accumulate"
       d="M 4 4 C 1.8027056 4 0 5.8027056 0 8 C 0 10.197294 1.8027056 12 4 12 C 5.8503017 12 7.4055915 10.715786 7.8554688 9 L 9.9863281 9 A 1.0001 1.0001 0 0 0 11 10 A 1.0001 1.0001 0 0 0 12.013672 9 L 12.986328 9 A 1.0001 1.0001 0 0 0 14 10 A 1.0001 1.0001 0 0 0 15.013672 9 A 1.0001 1.0001 0 1 0 15 7 L 7.8554688 7 C 7.4055915 5.2842135 5.8503017 4 4 4 z M 4 6 C 5.0855278 6 5.9431814 6.837639 5.9902344 7.9101562 A 1.0001 1.0001 0 0 0 5.9902344 8.0917969 C 5.9422096 9.1633677 5.0848637 10 4 10 C 2.8835859 10 2 9.1164141 2 8 C 2 6.8835859 2.8835859 6 4 6 z "
       id="path4484" />
  </g>
</svg>

<svg xmlns="http://www.w3.org/2000/svg" width="16" height="16">
    <path d="M4 4C1.803 4 0 5.803 0 8s1.803 4 4 4c1.85 0 3.406-1.284 3.855-3h2.131A1 1 0 0 0 11 10a1 1 0 0 0 1.014-1h.972A1 1 0 0 0 14 10a1 1 0 0 0 1.014-1A1 1 0 1 0 15 7H7.855C7.405 5.284 5.85 4 4 4zm0 2c1.086 0 1.943.838 1.99 1.91a1 1 0 0 0 0 .182A1.98 1.98 0 0 1 4 10c-1.116 0-2-.884-2-2s.884-2 2-2z" fill-rule="evenodd"/>
</svg>
